symbolic/32x32/apps/nvidia.svg

<svg xmlns="http://www.w3.org/2000/svg" width="32" height="32" version="1">
 <path style="opacity:0.2" d="M 14.062791,7.0005165 C 12.559208,6.9728143 11.267402,8.062534 11.041366,9.5492787 6.8996487,10.815012 4.0004877,13.576519 4.0004877,13.576519 c -0.9519506,0.851234 -1.2607369,2.211766 -0.7695162,3.390537 0,0 2.2377271,5.849741 7.8767995,7.806439 0.350057,1.31149 1.537065,2.224566 2.894474,2.226505 H 26.000059 C 27.656812,26.999834 28.999834,25.656821 29,24.000077 V 10.000439 C 28.999834,8.3436962 27.656812,7.0006822 26.000059,7.0005165 H 14.162398 l 0.03711,0.013672 c -0.04579,-0.00304 -0.09069,-0.012739 -0.136717,-0.013672 z"/>
 <path style="fill:#4ca341" d="M 14.062791,6.0005165 C 12.559208,5.9728143 11.267402,7.062534 11.041366,8.5492787 6.8996487,9.8150115 4.0004877,12.576519 4.0004877,12.576519 c -0.9519506,0.851234 -1.2607369,2.211766 -0.7695162,3.390537 0,0 2.2377271,5.849741 7.8767995,7.806439 0.350057,1.31149 1.537065,2.224566 2.894474,2.226505 H 26.000059 C 27.656812,25.999834 28.999834,24.656821 29,23.000077 V 9.000439 C 28.999834,7.3436962 27.656812,6.0006822 26.000059,6.0005165 H 14.162398 l 0.03711,0.013672 c -0.04579,-0.00304 -0.09069,-0.012739 -0.136717,-0.013672 z"/>
 <path style="fill:#262626" d="m 8.0433,15.027 c 0,0 2.34778,-2.8223 5.95818,-3.1143 V 10.8888 C 10.00248,11.22856 6,14.8116 6,14.8116 c 0,0 2.50098,5.9982 8.00148,6.5474 V 20.2706 C 9.96488,19.7326 8.0432,15.0266 8.0432,15.0266 Z m 5.95818,3.079 v 0.99674 c -3.0508,-0.57538 -4.43718,-3.9303 -4.43718,-3.9303 0,0 2.00438,-1.7166 4.43718,-1.995 v 1.0937 c -0.0015,0 -0.0025,-5.68e-4 -0.0039,-5.68e-4 -1.2768,-0.1621 -2.81388,1.0998 -2.81388,1.0998 0,0 1.09866,2.1243 2.81858,2.7356 m 0,-9.1059 v 1.8886 c 0.11739,-0.0095 -0.30479,-0.0175 -0.18676,-0.02176 4.5464,-0.1621 7.5087,3.9446 7.5087,3.9446 0,0 -3.4023,4.3766 -6.9469,4.3766 -0.32486,0 -0.0894,-0.03189 -0.37506,-0.08541 v 1.1679 c 0.24427,0.03276 -0.04205,0.05211 0.22223,0.05211 3.2985,0 5.6838,-1.7821 7.9936,-3.8912 0.38296,0.32446 1.9508,1.1138 2.2731,1.4593 -2.1961,1.9451 -7.3144,3.5131 -10.216,3.5131 -0.2797,0 -0.0087,-0.0179 -0.27277,-0.04484 v 1.6411 h 11.99742 v -14 H 14.00242 Z m 0,4.1774 v -1.2647 c 0.11619,-0.0072 -0.30632,-0.01516 -0.18676,-0.0192 3.2693,-0.10864 5.4142,2.9721 5.4142,2.9721 0,0 -2.3167,3.4038 -4.8006,3.4038 -0.35748,0 -0.13842,-0.06076 -0.42688,-0.16338 v -3.8348 c 1.2728,0.1627 1.23256,0.75746 1.99776,2.1069 l 1.45856,-1.5181 c 0,0 -1.2423,-1.7236 -3.3365,-1.7236 -0.22764,-8.2e-5 0.09412,0.01687 -0.11978,0.04096"/>
 <path style="opacity:0.2;fill:#ffffff" d="M 14.0625 6 C 12.558917 5.9722978 11.267052 7.0620834 11.041016 8.5488281 C 6.8992983 9.8145609 4 12.576172 4 12.576172 C 3.2209292 13.272817 2.8823381 14.310472 3.0507812 15.310547 C 3.1623057 14.656338 3.4814657 14.039845 4 13.576172 C 4 13.576172 6.8992983 10.814561 11.041016 9.5488281 C 11.267052 8.0620834 12.558917 6.9722978 14.0625 7 C 14.108527 7.000933 14.153429 7.0106319 14.199219 7.0136719 L 14.162109 7 L 26 7 C 27.656753 7.0001657 28.999834 8.3432572 29 10 L 29 9 C 28.999834 7.3432572 27.656753 6.0001657 26 6 L 14.162109 6 L 14.199219 6.0136719 C 14.153429 6.0106319 14.108527 6.000933 14.0625 6 z"/>
</svg>

<svg xmlns="http://www.w3.org/2000/svg" width="32" height="32" version="1"><path style="opacity:.2" d="M14.063 7a3 3 0 0 0-3.022 2.55c-4.141 1.265-7.04 4.027-7.04 4.027a3 3 0 0 0-.77 3.39s2.238 5.85 7.877 7.806A3 3 0 0 0 14.002 27H26a3 3 0 0 0 3-3V10a3 3 0 0 0-3-3H14.162l.038.014c-.046-.003-.091-.013-.137-.013z"/><path style="fill:#4ca341" d="M14.063 6a3 3 0 0 0-3.022 2.55c-4.141 1.265-7.04 4.027-7.04 4.027a3 3 0 0 0-.77 3.39s2.238 5.85 7.877 7.806A3 3 0 0 0 14.002 26H26a3 3 0 0 0 3-3V9a3 3 0 0 0-3-3H14.162l.038.014c-.046-.003-.091-.013-.137-.013z"/><path style="fill:#262626" d="M8.043 15.027s2.348-2.822 5.958-3.114v-1.024C10.002 11.229 6 14.812 6 14.812s2.501 5.998 8.001 6.547v-1.088c-4.036-.538-5.958-5.244-5.958-5.244zm5.958 3.079v.997c-3.05-.576-4.437-3.93-4.437-3.93s2.005-1.717 4.437-1.996v1.094h-.003c-1.277-.163-2.814 1.1-2.814 1.1s1.098 2.124 2.818 2.735m0-9.106v1.889c.118-.01-.305-.018-.186-.022 4.546-.162 7.508 3.945 7.508 3.945s-3.402 4.376-6.947 4.376c-.325 0-.09-.032-.375-.085v1.168c.245.032-.042.052.222.052 3.299 0 5.684-1.782 7.994-3.891.383.324 1.95 1.113 2.273 1.459-2.196 1.945-7.314 3.513-10.216 3.513-.28 0-.009-.018-.273-.045V23H26V9H14.002zm0 4.177v-1.264c.116-.007-.306-.015-.186-.02 3.269-.108 5.414 2.973 5.414 2.973s-2.317 3.403-4.8 3.403c-.358 0-.14-.06-.428-.163v-3.835c1.273.163 1.233.758 1.998 2.107l1.459-1.518s-1.243-1.724-3.337-1.724c-.228 0 .094.017-.12.041"/><path style="opacity:.2;fill:#fff" d="M14.063 6a3 3 0 0 0-3.022 2.549C6.899 9.815 4 12.576 4 12.576a2.994 2.994 0 0 0-.95 2.735c.112-.655.431-1.271.95-1.735 0 0 2.9-2.761 7.041-4.027A3 3 0 0 1 14.062 7c.047 0 .091.01.137.014L14.162 7H26a3 3 0 0 1 3 3V9a3 3 0 0 0-3-3H14.162l.037.014C14.153 6.01 14.11 6 14.063 6z"/></svg>
